public/images/broadcasters/ruv.svg

<svg fill="none" height="43" viewBox="0 0 139 43" width="139" xmlns="http://www.w3.org/2000/svg"><g fill="#fff"><path d="m26.4791 21.1686 1.7409-.1843c4.6697-.4915 9.3072-1.4834 13.772-2.9522l.0381-.0117-.0059-.038c-.2428-1.618-.6729-3.2038-1.2815-4.7194l-.0234-.0586-.0468.0381c-3.7247 2.9844-7.9701 5.0325-12.6164 6.0916l-1.6765.3804 1.6268-.5588c4.6375-1.5917 8.605-4.7809 11.168-8.9795l.0176-.0234-.0176-.0234c-.9128-1.49809-2.0188-2.88495-3.2828-4.11967l-.0673-.06437-.0117.0907c-.8602 7.44344-7.1654 13.05524-14.6644 13.05524-3.7627 0-7.3498-1.4161-10.0943-3.9909-2.55718-2.3963-4.18104-5.62352-4.57603-9.09359l-.0117-.09071-.0673.06437c-1.26397 1.23472-2.3758 2.61865-3.29453 4.11963l-.01462.0263.01462.0234c2.63329 4.3362 6.73828 7.578 11.55136 9.1317l1.6385.5266-1.6824-.3482c-4.81307-1.0035-9.2048-3.0633-13.06109-6.1209l-.04974-.0409-.02341.0585c-.582245 1.4775-.997718 3.0224-1.237639 4.5936l-.005852.038.038037.0117c4.494134 1.4835 9.160894 2.4899 13.868594 2.9844l1.7438.1843h-15.8845v.0439c.0087776 2.2442.368659 4.4561 1.07087 6.5715l.01755.0556.04682-.0322c3.97918-2.4401 8.31531-4.1196 12.88556-4.9798l1.1381-.2165-1.0884.3921c-4.58484 1.6502-8.4938 4.8686-10.99834 9.0702l-.0117.0234.0117.0234c.93628 1.5331 2.06859 2.9492 3.36475 4.2044l.07022.0673.00878-.0936c.73731-7.5955 7.05719-13.3215 14.69369-13.3215 3.7656 0 7.3498 1.4191 10.0943 3.9909 2.5806 2.4168 4.2073 5.6791 4.5848 9.1814l.0117.0936.0644-.0644c1.2727-1.2551 2.3816-2.6654 3.3003-4.1956l.0117-.0234-.0146-.0264c-2.4928-4.0991-6.3403-7.2591-10.8345-8.8946l-1.0884-.3979 1.1352.2223c4.4912.8632 8.7484 2.5133 12.6603 4.9038l.0468.0292.0175-.0556c.6905-2.1007 1.0446-4.2951 1.0504-6.5246v-.0439l-15.7763.0058zm-5.3514-19.57693c4.2454 0 7.7009 3.45545 7.7009 7.70088 0 4.24545-3.4526 7.70085-7.7009 7.70085-4.2484 0-7.7009-3.4554-7.7009-7.70085 0-4.24543 3.4555-7.70088 7.7009-7.70088zm0 16.57213c6.2087 0 11.2587-5.0501 11.2587-11.25875 0-1.41027-.2633-2.79713-.7812-4.11377l-.0058-.01463-.0117-.00878c-3.1746-1.811111-6.788-2.76787-10.46-2.76787s-7.2854.956759-10.4571 2.76494l-.0117.00878-.0087.01463c-.5179 1.31957-.78125 2.7035-.78125 4.11377 0 6.20868 5.05005 11.25878 11.25585 11.25878m.0029 22.4882c-4.2454 0-7.7009-3.4555-7.7009-7.7009s3.4555-7.7038 7.7009-7.7038 7.7009 3.4584 7.7009 7.7038-3.4526 7.7009-7.7009 7.7009zm0-16.5721c-6.2087 0-11.25582 5.0471-11.25582 11.2558 0 1.4219.26622 2.8117.79002 4.1342l.0058.0176.0146.0088c.1405.0819.2956.1726.4711.2691 3.0458 1.6356 6.4954 2.5017 9.9772 2.5017 3.6661 0 7.2766-.9539 10.4454-2.7591l.0146-.0088.0058-.0146c.5238-1.3255.7929-2.7182.7929-4.146 0-6.2087-5.05-11.2558-11.2587-11.2558"/><path d="m138.033 8.11003h-6.779l-4.801 20.60107-4.948-20.60107h-6.852l7.697 25.75057h8.099l7.587-25.75057zm-30.534-7.727218h-7.587l-3.7744 5.775658h4.6554zm2.197 7.727218h-6.451v15.96647c0 3.3852-1.358 5.1144-4.5092 5.1144s-4.5088-1.5829-4.5088-5.1144v-15.96647h-6.4866v16.00157c0 5.8868 3.2623 10.4102 10.9574 10.4102 7.6952 0 10.9952-4.4502 10.9952-10.4102v-16.00157zm-37.571 5.14957c2.3466 0 3.6661.9918 3.6661 3.0897 0 2.4284-1.577 3.236-3.8475 3.236h-3.7743v-6.3257h3.9587zm-10.4453-5.14957v25.75057h6.4866v-9.3803h2.8235l5.3514 9.3803h7.6599l-6.6709-10.4483c3.3706-1.3254 5.1319-3.7158 5.1319-7.2093 0-4.6726-3.116-8.09297-10.6297-8.09297z"/></g></svg>

<svg width="139" height="43" viewBox="0 0 139 43" fill="none" xmlns="http://www.w3.org/2000/svg"><path d="M26.4791 21.1686L28.22 20.9843C32.8897 20.4928 37.5272 19.5009 41.992 18.0321L42.0301 18.0204L42.0242 17.9824C41.7814 16.3644 41.3513 14.7786 40.7427 13.263L40.7193 13.2044L40.6725 13.2425C36.9478 16.2269 32.7024 18.275 28.0561 19.3341L26.3796 19.7145L28.0064 19.1557C32.6439 17.564 36.6114 14.3748 39.1744 10.1762L39.192 10.1528L39.1744 10.1294C38.2616 8.63131 37.1556 7.24445 35.8916 6.00973L35.8243 5.94536L35.8126 6.03606C34.9524 13.4795 28.6472 19.0913 21.1482 19.0913C17.3855 19.0913 13.7984 17.6752 11.0539 15.1004C8.49672 12.7041 6.87286 9.47688 6.47787 6.00681L6.46617 5.9161L6.39887 5.98047C5.1349 7.21519 4.02307 8.59912 3.10434 10.1001L3.08972 10.1264L3.10434 10.1498C5.73763 14.486 9.84262 17.7278 14.6557 19.2815L16.2942 19.8081L14.6118 19.4599C9.79873 18.4564 5.407 16.3966 1.55071 13.339L1.50097 13.2981L1.47756 13.3566C0.895315 14.8341 0.479842 16.379 0.239921 17.9502L0.234069 17.9882L0.272106 17.9999C4.76624 19.4834 9.433 20.4898 14.1407 20.9843L15.8845 21.1686H0V21.2125C0.0087776 23.4567 0.368659 25.6686 1.07087 27.784L1.08842 27.8396L1.13524 27.8074C5.11442 25.3673 9.45055 23.6878 14.0208 22.8276L15.1589 22.6111L14.0705 23.0032C9.48566 24.6534 5.5767 27.8718 3.07216 32.0734L3.06046 32.0968L3.07216 32.1202C4.00844 33.6533 5.14075 35.0694 6.43691 36.3246L6.50713 36.3919L6.51591 36.2983C7.25322 28.7028 13.5731 22.9768 21.2096 22.9768C24.9752 22.9768 28.5594 24.3959 31.3039 26.9677C33.8845 29.3845 35.5112 32.6468 35.8887 36.1491L35.9004 36.2427L35.9648 36.1783C37.2375 34.9232 38.3464 33.5129 39.2651 31.9827L39.2768 31.9593L39.2622 31.9329C36.7694 27.8338 32.9219 24.6738 28.4277 23.0383L27.3393 22.6404L28.4745 22.8627C32.9657 23.7259 37.2229 25.376 41.1348 27.7665L41.1816 27.7957L41.1991 27.7401C41.8896 25.6394 42.2437 23.445 42.2495 21.2155V21.1716L26.4732 21.1774L26.4791 21.1686ZM21.1277 1.59167C25.3731 1.59167 28.8286 5.04712 28.8286 9.29255C28.8286 13.538 25.376 16.9934 21.1277 16.9934C16.8793 16.9934 13.4268 13.538 13.4268 9.29255C13.4268 5.04712 16.8823 1.59167 21.1277 1.59167ZM21.1277 18.1638C27.3364 18.1638 32.3864 13.1137 32.3864 6.90505C32.3864 5.49478 32.1231 4.10792 31.6052 2.79128L31.5994 2.77665L31.5877 2.76787C28.4131 0.956759 24.7997 0 21.1277 0C17.4557 0 13.8423 0.956759 10.6706 2.76494L10.6589 2.77372L10.6502 2.78835C10.1323 4.10792 9.86895 5.49185 9.86895 6.90212C9.86895 13.1108 14.919 18.1609 21.1248 18.1609M21.1277 40.6491C16.8823 40.6491 13.4268 37.1936 13.4268 32.9482C13.4268 28.7028 16.8823 25.2444 21.1277 25.2444C25.3731 25.2444 28.8286 28.7028 28.8286 32.9482C28.8286 37.1936 25.376 40.6491 21.1277 40.6491ZM21.1277 24.077C14.919 24.077 9.87188 29.1241 9.87188 35.3328C9.87188 36.7547 10.1381 38.1445 10.6619 39.467L10.6677 39.4846L10.6823 39.4934C10.8228 39.5753 10.9779 39.666 11.1534 39.7625C14.1992 41.3981 17.6488 42.2642 21.1306 42.2642C24.7967 42.2642 28.4072 41.3103 31.576 39.5051L31.5906 39.4963L31.5964 39.4817C32.1202 38.1562 32.3893 36.7635 32.3893 35.3357C32.3893 29.127 27.3393 24.0799 21.1306 24.0799" fill="#ffffff"></path><path d="M138.033 8.11003H131.254L126.453 28.7111L121.505 8.11003H114.653L122.35 33.8606H130.449L138.036 8.11003H138.033ZM107.499 0.382812H99.912L96.1376 6.15847H100.793L107.499 0.382812ZM109.696 8.11003H103.245V24.0765C103.245 27.4617 101.887 29.1909 98.7358 29.1909C95.5846 29.1909 94.227 27.608 94.227 24.0765V8.11003H87.7404V24.1116C87.7404 29.9984 91.0027 34.5218 98.6978 34.5218C106.393 34.5218 109.693 30.0716 109.693 24.1116V8.11003H109.696ZM72.125 13.2596C74.4716 13.2596 75.7911 14.2514 75.7911 16.3493C75.7911 18.7777 74.2141 19.5853 71.9436 19.5853H68.1693V13.2596H72.128H72.125ZM61.6797 8.11003V33.8606H68.1663V24.4803H70.9898L76.3412 33.8606H84.0011L77.3302 23.4123C80.7008 22.0869 82.4621 19.6965 82.4621 16.203C82.4621 11.5304 79.3461 8.11003 71.8324 8.11003H61.6797Z" fill="#ffffff"></path></svg>
